X: 1
T: Fairies' Revels March, The
M: 4/4
L: 1/8
R: barndance
K: Gmaj
D2 |
G2 G2 A2 Bc | de dc A2 Bc | d2 cA G2 EG | F6 D2 |
   G2 G2 A2 Bc | de dc A2 Bc | dB cA G2 G2 | G6 ||
Bc |
d2 g2 d2 cB | c2 d2 c2 DE | FG AB cB AG | F6 dc |
   B2 AB c2 Bc | de dc A2 Bc | dB cA G2 G2 | G6 ||
